X:1
T: Cahill's Workshop
C:
R:Jig
Q:180
K:Am
M:6/8
L:1/16
A6 A2G2E2|G4E2 E6|A6 B2c2d2|e2c2A2 A4B2|A6 A2G2E2|G4E2 G4E2|D4E2 G4A2|B4G2 G4B2|
A6 A2G2E2|G4E2 E6|A6 B2c2d2|e2c2A2 A4B2|A6 A2G2E2|G4E2 G4E2|D4E2 G4A2|B4A2 A4c2|
B4d2 d4B2|G4E2 E6|c4A2 B2c2d2|e2c2A2 A4c2|B4d2 d4B2|G4E2 G4E2|D4E2 G4A2|B4G2 G4c2|
B4d2 d4B2|G4E2 E6|c4A2 B2c2d2|e2c2A2 A4c2|B4d2 d4B2|G4E2 G4E2|D4E2 G4A2|B4A2 A4B2||
